packages/icons/src/square-four-fill.svg

<svg width="24" height="24" viewBox="0 0 24 24" fill="none" xmlns="http://www.w3.org/2000/svg">
<path d="M17.0678 12.388C16.9491 12.388 16.8315 12.3659 16.7151 12.3218C16.5987 12.2777 16.4981 12.2041 16.4131 12.101L11.8989 7.58691C11.7959 7.50191 11.7223 7.39956 11.6782 7.27986C11.634 7.16014 11.612 7.04053 11.612 6.92103C11.612 6.79746 11.634 6.67886 11.6782 6.56521C11.7224 6.45157 11.796 6.34124 11.8989 6.23421L16.4131 1.72603C16.4981 1.63568 16.6 1.56427 16.719 1.51181C16.8379 1.45934 16.9567 1.43311 17.0753 1.43311C17.1979 1.43311 17.3167 1.45943 17.4315 1.51208C17.5463 1.56473 17.6577 1.63605 17.7658 1.72603L22.2739 6.23421C22.3639 6.34224 22.4352 6.45476 22.4879 6.57178C22.5405 6.68881 22.5669 6.80868 22.5669 6.93138C22.5669 7.04998 22.5406 7.16764 22.4882 7.28436C22.4357 7.40106 22.3643 7.50191 22.2739 7.58691L17.7658 12.101C17.6576 12.204 17.545 12.2776 17.4278 12.3218C17.3107 12.3659 17.1907 12.388 17.0678 12.388ZM3.08752 10.8277C2.8086 10.8277 2.57791 10.736 2.39544 10.5528C2.21297 10.3695 2.12175 10.1432 2.12177 9.87388V3.50268C2.12177 3.23333 2.213 3.00702 2.39547 2.82376C2.57793 2.64051 2.80862 2.54888 3.08754 2.54888H9.44677C9.7217 2.54888 9.9504 2.64051 10.1329 2.82376C10.3153 3.00702 10.4066 3.23333 10.4066 3.50268V9.87388C10.4066 10.1432 10.3153 10.3695 10.1329 10.5528C9.9504 10.736 9.7217 10.8277 9.44677 10.8277H3.08752ZM14.1451 21.8782C13.8758 21.8782 13.6495 21.787 13.4662 21.6045C13.2829 21.4221 13.1913 21.1914 13.1913 20.9125V14.5722C13.1913 14.2973 13.2829 14.0686 13.4662 13.8862C13.6495 13.7037 13.8758 13.6125 14.1451 13.6125H20.4973C20.7666 13.6125 20.9929 13.7037 21.1762 13.8862C21.3595 14.0686 21.4511 14.2973 21.4511 14.5722V20.9125C21.4511 21.1914 21.3595 21.4221 21.1762 21.6045C20.9929 21.787 20.7666 21.8782 20.4973 21.8782H14.1451ZM3.08752 21.8782C2.8086 21.8782 2.57791 21.787 2.39544 21.6045C2.21297 21.4221 2.12175 21.1914 2.12177 20.9125V14.5532C2.12177 14.2783 2.213 14.0496 2.39547 13.8671C2.57793 13.6847 2.80862 13.5934 3.08754 13.5934H9.44677C9.7217 13.5934 9.9504 13.6847 10.1329 13.8671C10.3153 14.0496 10.4066 14.2783 10.4066 14.5532V20.9125C10.4066 21.1914 10.3153 21.4221 10.1329 21.6045C9.9504 21.787 9.72169 21.8782 9.44674 21.8782L3.08752 21.8782Z" fill="black"/>
</svg>

<svg xmlns="http://www.w3.org/2000/svg" width="24" height="24" fill="none" viewBox="0 0 24 24">
  <path fill="#000" d="M17.068 12.388a.989.989 0 0 1-.353-.066.717.717 0 0 1-.302-.221L11.9 7.587a.713.713 0 0 1-.22-.307 1.03 1.03 0 0 1-.067-.359c0-.124.022-.242.066-.356.044-.113.118-.224.22-.33l4.515-4.509a.93.93 0 0 1 .306-.214.846.846 0 0 1 .712 0c.115.053.227.124.335.214l4.508 4.508c.09.108.161.22.214.338a.855.855 0 0 1 0 .713.94.94 0 0 1-.214.302L17.766 12.1a.99.99 0 0 1-.338.22 1.014 1.014 0 0 1-.36.067Zm-13.98-1.56a.936.936 0 0 1-.966-.954V3.503a.936.936 0 0 1 .966-.954h6.359a.93.93 0 0 1 .686.275c.182.183.274.41.274.679v6.37c0 .27-.092.497-.274.68a.929.929 0 0 1-.686.275h-6.36Zm11.057 11.05a.935.935 0 0 1-.954-.966v-6.34a.93.93 0 0 1 .275-.686.924.924 0 0 1 .68-.273h6.351c.27 0 .496.09.68.273a.928.928 0 0 1 .274.686v6.34a.935.935 0 0 1-.954.966h-6.352Zm-11.057 0a.938.938 0 0 1-.693-.273.938.938 0 0 1-.273-.692v-6.36a.938.938 0 0 1 .966-.96h6.359c.275 0 .503.092.686.274a.931.931 0 0 1 .274.686v6.36a.938.938 0 0 1-.96.965h-6.36Z"/>
</svg>
